static/img/kroki/76cf2d013752122e3a2e7179baa3f581.svg

<?xml version="1.0" encoding="us-ascii" standalone="no"?><svg xmlns="http://www.w3.org/2000/svg" xmlns:xlink="http://www.w3.org/1999/xlink" contentStyleType="text/css" height="152px" preserveAspectRatio="none" style="width:311px;height:152px;" version="1.1" viewBox="0 0 311 152" width="311px" zoomAndPan="magnify"><defs/><g><!--class aws_cloudformation_stack_set--><g id="elem_aws_cloudformation_stack_set"><rect codeLine="22" fill="#3D176E" height="39.7891" id="aws_cloudformation_stack_set" rx="2.5" ry="2.5" style="stroke:#000D19;stroke-width:0.5;" width="297" x="7" y="106.79"/><ellipse cx="22" cy="126.6845" fill="#ADD1B2" rx="11" ry="11" style="stroke:#181818;stroke-width:1.0;"/><path d="M24.9688,132.3252 Q24.3906,132.622 23.75,132.7627 Q23.1094,132.9189 22.4063,132.9189 Q19.9063,132.9189 18.5781,131.2783 Q17.2656,129.622 17.2656,126.497 Q17.2656,123.372 18.5781,121.7158 Q19.9063,120.0595 22.4063,120.0595 Q23.1094,120.0595 23.75,120.2158 Q24.4063,120.372 24.9688,120.6689 L24.9688,123.3877 Q24.3438,122.8095 23.75,122.5439 Q23.1563,122.2627 22.5313,122.2627 Q21.1875,122.2627 20.5,123.3408 Q19.8125,124.4033 19.8125,126.497 Q19.8125,128.5908 20.5,129.6689 Q21.1875,130.7314 22.5313,130.7314 Q23.1563,130.7314 23.75,130.4658 Q24.3438,130.1845 24.9688,129.6064 L24.9688,132.3252 Z " fill="#000000"/><text fill="#D9B8FF" font-family="Helvetica" font-size="17" lengthAdjust="spacing" textLength="255" x="41" y="132.5698">aws_cloudformation_stack_set</text></g><!--class aws_region--><g id="elem_aws_region"><rect codeLine="24" fill="#3D176E" height="39.7891" id="aws_region" rx="2.5" ry="2.5" style="stroke:#000D19;stroke-width:0.5;" width="137" x="87" y="7"/><ellipse cx="102" cy="26.8945" fill="#ADD1B2" rx="11" ry="11" style="stroke:#181818;stroke-width:1.0;"/><path d="M104.9688,32.5352 Q104.3906,32.832 103.75,32.9727 Q103.1094,33.1289 102.4063,33.1289 Q99.9063,33.1289 98.5781,31.4883 Q97.2656,29.832 97.2656,26.707 Q97.2656,23.582 98.5781,21.9258 Q99.9063,20.2695 102.4063,20.2695 Q103.1094,20.2695 103.75,20.4258 Q104.4063,20.582 104.9688,20.8789 L104.9688,23.5977 Q104.3438,23.0195 103.75,22.7539 Q103.1563,22.4727 102.5313,22.4727 Q101.1875,22.4727 100.5,23.5508 Q99.8125,24.6133 99.8125,26.707 Q99.8125,28.8008 100.5,29.8789 Q101.1875,30.9414 102.5313,30.9414 Q103.1563,30.9414 103.75,30.6758 Q104.3438,30.3945 104.9688,29.8164 L104.9688,32.5352 Z " fill="#000000"/><text fill="#D9B8FF" font-family="Helvetica" font-size="17" lengthAdjust="spacing" textLength="95" x="121" y="32.7798">aws_region</text></g><!--link aws_region to aws_cloudformation_stack_set--><g id="link_aws_region_aws_cloudformation_stack_set"><path codeLine="26" d="M155.5,47.22 C155.5,64.36 155.5,83.27 155.5,100.41 " fill="none" id="aws_region-to-aws_cloudformation_stack_set" style="stroke:#1A83AF;stroke-width:2.0;"/><polygon fill="#1A83AF" points="155.5,106.41,159.5,97.41,155.5,101.41,151.5,97.41,155.5,106.41" style="stroke:#1A83AF;stroke-width:2.0;"/></g><!--SRC=[XP11IyD048Nl_HKBFHSQWpQz235Gz5B4UXC9a-niipIxMsQdXYh-TvDMPKriUznvtxxtPYejKQ3PybuOD0MI7_cDjbiWC28bSatcQaTYh1IeUDON5yxoHM091iKzrc_8keG-yLpfScFHUt4LI7TGRjRaTbOUxPd0-bP2om6LrU1zoaows346PUIyI9JgattJSIoZsGqEC4SIwHkPJgSoclUHYr5dz_ubLleTHHGURUaO1pK74GVgRCkE24eE5ltHJtPy12crNOlhOFPqx4GMwSzyLO5qJKShg7qOuna97U-tc0ssmdaYrUnV-E4KN7QN4z3ulApTJYf71bWxctjkV-GUMNoCFWECSDtAXs7mdBoCepI9qyNhvFQisnS0]--></g></svg>

<svg xmlns="http://www.w3.org/2000/svg" width="311" height="152" viewBox="0 0 311 152"><rect width="297" height="39.789" x="7" y="106.79" fill="#3D176E" rx="2.5" ry="2.5" style="stroke:#000d19;stroke-width:.5"/><circle cx="22" cy="126.684" r="11" fill="#ADD1B2" style="stroke:#181818;stroke-width:1"/><path d="M24.969 132.325q-.578.297-1.219.438-.64.156-1.344.156-2.5 0-3.828-1.64-1.312-1.657-1.312-4.782t1.312-4.781q1.328-1.656 3.828-1.656.703 0 1.344.156.656.156 1.219.453v2.719q-.625-.579-1.219-.844-.594-.281-1.219-.281-1.343 0-2.031 1.078-.687 1.062-.687 3.156t.687 3.172q.688 1.062 2.031 1.062.625 0 1.219-.265.594-.281 1.219-.86z"/><text x="41" y="132.57" fill="#D9B8FF" font-family="Helvetica" font-size="17" textLength="255">aws_cloudformation_stack_set</text><rect width="137" height="39.789" x="87" y="7" fill="#3D176E" rx="2.5" ry="2.5" style="stroke:#000d19;stroke-width:.5"/><circle cx="102" cy="26.895" r="11" fill="#ADD1B2" style="stroke:#181818;stroke-width:1"/><path d="M104.969 32.535q-.578.297-1.219.438-.64.156-1.344.156-2.5 0-3.828-1.64-1.312-1.657-1.312-4.782t1.312-4.781q1.328-1.656 3.828-1.656.703 0 1.344.156.656.156 1.219.453v2.719q-.625-.578-1.219-.844-.594-.281-1.219-.281-1.344 0-2.031 1.078-.687 1.062-.687 3.156t.687 3.172q.688 1.062 2.031 1.062.625 0 1.219-.265.594-.281 1.219-.86z"/><text x="121" y="32.78" fill="#D9B8FF" font-family="Helvetica" font-size="17" textLength="95">aws_region</text><path fill="none" d="M155.5 47.22v53.19" style="stroke:#1a83af;stroke-width:2"/><path fill="#1A83AF" d="m155.5 106.41 4-9-4 4-4-4z" style="stroke:#1a83af;stroke-width:2"/></svg>
